X: 3377
T: The LASS O' GOWRIE
%R: march, reel
B: James Kerr "Merry Melodies" v.3 p.42 #377
Z: 2016 John Chambers <jc:trillian.mit.edu>
M: 2/4
L: 1/16
K: D
uA2 |\
F2A2A2 (Bc) | d3ed2c2 | B3AB2 (cd) | e3fe2A2 |\
F2A2A2 (Bc) | d3ef3e | dcBA d2f2 | (e4 d2) :|
|: g2 |\
f2a2d3e | fefg a2(gf) | g2b2e3f | gfga b2(ag) |\
f2a2e2f2 | d3ef3e | dcBA d2f2 | (e4 d2) :|

%%sep 1 1 500
%%sep 1 1 500

